public/MagentoTwo.svg

<svg width="74" height="85" viewBox="0 0 74 85" fill="none" xmlns="http://www.w3.org/2000/svg">
<path d="M37.0346 0L0 21.2629V63.7543L10.5764 69.822L10.5072 27.3478L36.9654 12.1355L63.4236 27.3478V69.8048L74 63.7543V21.2285L37.0346 0Z" fill="#F26322"/>
<path d="M42.2892 69.8219L37.001 72.8643L31.6955 69.8391V27.3477L21.1191 33.4154L21.1364 75.8896L37.001 84.9998L52.8655 75.8896V33.4154L42.2892 27.3477V69.8219Z" fill="#F26322"/>
</svg>

<svg xmlns="http://www.w3.org/2000/svg" width="74" height="85" fill="none" viewBox="0 0 74 85"><path fill="#f26322" d="M37.035 0 0 21.263v42.491l10.576 6.068-.069-42.474 26.458-15.212 26.459 15.212v42.457L74 63.755V21.227z"/><path fill="#f26322" d="M42.29 69.822 37 72.864l-5.305-3.025V27.348l-10.577 6.067.017 42.475L37.001 85l15.865-9.11V33.415l-10.577-6.067z"/></svg>
